packages/foundations/assets/icons/functional/images/logos/s_bahn_14.svg

<svg width="14" height="14" viewBox="0 0 14 14" fill="none" xmlns="http://www.w3.org/2000/svg">
<g clip-path="url(#clip0_185_1719)">
<path fill-rule="evenodd" clip-rule="evenodd" d="M7.00016 1.4C10.0929 1.4 12.6 3.90726 12.6 7.00013C12.6 10.0928 10.0928 12.6 7.00016 12.6C3.90711 12.6 1.40002 10.0929 1.40002 7.00013C1.40002 3.90713 3.90706 1.4 7.00016 1.4ZM7.00016 2.8C4.68027 2.8 2.80002 4.68032 2.80002 7.00013C2.80002 9.31972 4.68031 11.2 7.00016 11.2C9.31961 11.2 11.2 9.31959 11.2 7.00013C11.2 4.68045 9.31965 2.8 7.00016 2.8ZM6.80711 4.2C7.58443 4.2 8.28081 4.46394 8.8342 4.9082V5.84137C8.35532 5.30704 7.63417 4.83732 6.78839 4.83732C6.3097 4.83732 6.03603 5.10126 6.03603 5.41022C6.03603 5.85499 6.40208 6.04064 6.88372 6.17794L7.59985 6.35788C8.38175 6.55897 9.16366 6.86461 9.16366 7.93288C9.16366 8.79576 8.35532 9.8 6.99378 9.8C6.23519 9.8 5.37867 9.4458 4.90017 9.00174V7.88158C5.35389 8.55747 6.16048 9.07868 6.99378 9.07868C7.50367 9.07868 7.9139 8.77657 7.9139 8.45448C7.9139 8.02714 7.53398 7.8429 7.04113 7.69268L6.43751 7.52255C5.64791 7.29604 4.83639 6.9704 4.83639 5.89287C4.83639 4.79209 5.87452 4.2 6.80711 4.2Z" fill="#1A1C1F"/>
</g>
<defs>
<clipPath id="clip0_185_1719">
<rect width="14" height="14" fill="white"/>
</clipPath>
</defs>
</svg>

<svg xmlns="http://www.w3.org/2000/svg" width="14" height="14" fill="none"><g clip-path="url(#a)"><path fill="#1A1C1F" fill-rule="evenodd" d="M7 1.4a5.6 5.6 0 1 1 0 11.2A5.6 5.6 0 0 1 7 1.4m0 1.4a4.2 4.2 0 1 0 0 8.4 4.2 4.2 0 0 0 0-8.4m-.193 1.4c.777 0 1.474.264 2.027.708v.933c-.479-.534-1.2-1.004-2.046-1.004-.478 0-.752.264-.752.573 0 .445.366.63.848.768l.716.18c.782.201 1.564.507 1.564 1.575 0 .863-.809 1.867-2.17 1.867-.759 0-1.615-.354-2.094-.798v-1.12c.454.675 1.26 1.197 2.094 1.197.51 0 .92-.302.92-.625 0-.427-.38-.611-.873-.761l-.603-.17c-.79-.227-1.602-.553-1.602-1.63 0-1.1 1.039-1.693 1.971-1.693" clip-rule="evenodd"/></g><defs><clipPath id="a"><path fill="#fff" d="M0 0h14v14H0z"/></clipPath></defs></svg>
